relation-one-to-only-one.svg

<svg fill="currentColor" viewBox="0 0 24 24"><path d="M22 15v2h-1v2h-2v-2h-1v2h-2v-2h-5V9H7v2H5V9H2V7h3V5h2v2h6v8h3v-2h2v2h1v-2h2v2Z"/></svg>

<svg  viewBox="0 0 24 24" fill="currentColor"><path  d="M22 15V17H21V19H19V17H18V19H16V17H11V9H7V11H5V9H2V7H5V5H7V7H13V15H16V13H18V15H19V13H21V15Z"/></svg>
